material/.icons/material/code-parentheses-box.svg

<svg xmlns="http://www.w3.org/2000/svg" viewBox="0 0 24 24"><path d="M19 3H5c-1.1 0-2 .9-2 2v14c0 1.1.9 2 2 2h14c1.1 0 2-.9 2-2V5c0-1.1-.9-2-2-2m-9 14.3l-1.6.7C6.9 16.5 6 14.3 6 12s.9-4.5 2.4-6l1.6.7C8.7 7.9 8 9.9 8 12s.7 4.1 2 5.3m5.6.7l-1.6-.7c1.3-1.3 2-3.2 2-5.3s-.7-4.1-2-5.3l1.6-.7c1.5 1.5 2.4 3.7 2.4 6s-.9 4.5-2.4 6z"/></svg>

<?xml version="1.0" encoding="UTF-8"?><!DOCTYPE svg PUBLIC "-//W3C//DTD SVG 1.1//EN" "http://www.w3.org/Graphics/SVG/1.1/DTD/svg11.dtd"><svg xmlns="http://www.w3.org/2000/svg" xmlns:xlink="http://www.w3.org/1999/xlink" version="1.1" id="mdi-code-parentheses-box" width="24" height="24" viewBox="0 0 24 24"><path d="M19 3H5C3.9 3 3 3.9 3 5V19C3 20.1 3.9 21 5 21H19C20.1 21 21 20.1 21 19V5C21 3.9 20.1 3 19 3M10 17.3L8.4 18C6.9 16.5 6 14.3 6 12S6.9 7.5 8.4 6L10 6.7C8.7 7.9 8 9.9 8 12S8.7 16.1 10 17.3M15.6 18L14 17.3C15.3 16 16 14.1 16 12S15.3 7.9 14 6.7L15.6 6C17.1 7.5 18 9.7 18 12C18 14.3 17.1 16.5 15.6 18Z" /></svg>
